src/assets/icons/botostart-logo.svg

<svg width="80" height="85" viewBox="0 0 80 85" fill="none" xmlns="http://www.w3.org/2000/svg">
<path fill-rule="evenodd" clip-rule="evenodd" d="M11.5866 16.8032H11.5865V20.854V50.2598H11.5885C11.5872 50.3847 11.5865 50.5098 11.5865 50.635C11.5865 69.3197 26.9014 84.4667 45.7932 84.4667C64.6851 84.4667 80 69.3197 80 50.635C80 31.9503 64.6851 16.8033 45.7932 16.8033C45.6931 16.8033 45.5931 16.8037 45.4932 16.8046V16.8032H29.8901V16.8032H25.6894C25.6894 14.5966 25.3246 12.4116 24.6159 10.373C23.9071 8.3343 22.8683 6.48191 21.5588 4.92158C20.2492 3.36125 18.6945 2.12352 16.9835 1.27908C15.2725 0.434631 13.4386 0 11.5866 0L11.5866 16.8032ZM45.5683 80.1159C61.933 80.1159 75.1992 66.9504 75.1992 50.71C75.1992 34.4697 61.933 21.3042 45.5683 21.3042C29.2037 21.3042 15.9375 34.4697 15.9375 50.71C15.9375 66.9504 29.2037 80.1159 45.5683 80.1159ZM19.7528 9.5004C20.1184 9.13077 20.1152 8.53469 19.7456 8.16903C19.7105 8.13437 19.6735 8.10302 19.6347 8.07498L16.0106 4.44321C15.6434 4.07517 15.0473 4.07454 14.6792 4.44181C14.3112 4.80907 14.3106 5.40515 14.6778 5.7732L17.7479 8.84977L14.7354 11.8951C14.3697 12.2647 14.3729 12.8608 14.7426 13.2265C15.1122 13.5921 15.7083 13.5889 16.0739 13.2193L19.7528 9.5004ZM0.279351 9.49609C-0.0902856 9.13043 -0.0935104 8.53436 0.272148 8.16472L3.95098 4.44586C4.31664 4.07622 4.91272 4.073 5.28235 4.43866C5.65199 4.80431 5.65522 5.40039 5.28956 5.77003L2.277 8.81536L5.34708 11.8919C5.71434 12.26 5.71371 12.8561 5.34567 13.2233C4.97763 13.5906 4.38155 13.59 4.01429 13.2219L0.390152 9.59011C0.351444 9.56208 0.314381 9.53075 0.279351 9.49609ZM71.8723 51.8781C71.256 65.7535 59.7149 76.8152 45.568 76.8152C31.0262 76.8152 19.2378 65.1275 19.2378 50.7101C19.2378 36.2926 31.0262 24.6049 45.568 24.6049C57.4798 24.6049 67.5442 32.4474 70.7949 43.2087H59.1751C56.542 38.3779 51.469 35.1068 45.6429 35.1068C37.1084 35.1068 30.1898 42.1262 30.1898 50.785C30.1898 59.4437 37.1084 66.4631 45.6429 66.4631C51.5934 66.4631 56.7583 63.0508 59.3404 58.0497C59.5828 58.1073 59.9141 58.1367 60.3459 58.1367C65.05 58.0764 69.9966 55.8342 71.8723 51.8781ZM59.7459 45.3092H68.8978V45.3098H71.8145C71.8205 45.4256 71.8235 45.5499 71.8235 45.6832C71.8235 50.6312 67.1159 55.8168 61.0998 55.9323L61.0998 55.9341L58.9265 55.9627C58.8501 55.9659 58.7732 55.9675 58.6959 55.9675C55.713 55.9675 53.2949 53.5829 53.2949 50.6414C53.2949 47.7 55.713 45.3154 58.6959 45.3154V45.3093H59.7459V45.3092Z" fill="#55A3F0"/>
</svg>

<svg xmlns="http://www.w3.org/2000/svg" width="80" height="85" fill="none" viewBox="0 0 80 85"><path fill="#55a3f0" fill-rule="evenodd" d="M11.587 16.803V50.26h.002l-.003.375c0 18.685 15.315 33.832 34.207 33.832S80 69.32 80 50.635 64.685 16.803 45.793 16.803l-.3.002v-.002H25.69a19.6 19.6 0 0 0-1.074-6.43c-.709-2.039-1.748-3.891-3.057-5.451-1.31-1.56-2.864-2.798-4.576-3.643A12.2 12.2 0 0 0 11.587 0zm33.981 63.313C61.933 80.116 75.2 66.95 75.2 50.71S61.933 21.304 45.57 21.304c-16.365 0-29.632 13.166-29.632 29.406s13.267 29.406 29.631 29.406M19.753 9.5a.942.942 0 0 0-.118-1.425L16.01 4.443a.941.941 0 0 0-1.333 1.33l3.07 3.077-3.013 3.045a.941.941 0 1 0 1.339 1.324zM.279 9.496a.94.94 0 0 1-.007-1.331l3.679-3.72A.941.941 0 1 1 5.29 5.77L2.277 8.815l3.07 3.077a.941.941 0 0 1-1.333 1.33L.39 9.59a1 1 0 0 1-.11-.094m71.593 42.382c-.616 13.876-12.157 24.937-26.304 24.937-14.542 0-26.33-11.687-26.33-26.105 0-14.417 11.788-26.105 26.33-26.105 11.912 0 21.976 7.842 25.227 18.604h-11.62c-2.633-4.831-7.706-8.102-13.532-8.102-8.535 0-15.453 7.02-15.453 15.678s6.918 15.678 15.453 15.678c5.95 0 11.115-3.412 13.697-8.413.243.057.574.087 1.006.087 4.704-.06 9.65-2.303 11.526-6.259M59.746 45.31h12.068q.01.174.01.374c0 4.948-4.708 10.134-10.724 10.25v.001l-2.174.029a6 6 0 0 1-.23.005c-2.983 0-5.401-2.385-5.401-5.327 0-2.941 2.418-5.326 5.4-5.326v-.006z" clip-rule="evenodd"/></svg>
